src/assets/icons/ticket.svg

<svg width="14" height="14" viewBox="0 0 14 14" fill="none" xmlns="http://www.w3.org/2000/svg">
<g id="ticket">
<path id="Vector" fill-rule="evenodd" clip-rule="evenodd" d="M0 3.00001C0 2.22864 0.628629 1.60001 1.4 1.60001H12.6C13.3714 1.60001 14 2.22864 14 3.00001V5.00001C14 5.33138 13.7314 5.60001 13.4 5.60001C12.6274 5.60001 12 6.22738 12 7.00001C12 7.77264 12.6274 8.40001 13.4 8.40001C13.7314 8.40001 14 8.66864 14 9.00001V11C14 11.7714 13.3714 12.4 12.6 12.4H1.4C0.628629 12.4 0 11.7714 0 11V9.00001C0 8.66864 0.268629 8.40001 0.6 8.40001C1.37263 8.40001 2 7.77264 2 7.00001C2 6.22738 1.37263 5.60001 0.6 5.60001C0.268629 5.60001 0 5.33138 0 5.00001V3.00001ZM1.4 2.80001C1.29137 2.80001 1.2 2.89138 1.2 3.00001V4.46965C2.34635 4.74069 3.2 5.77113 3.2 7.00001C3.2 8.22889 2.34635 9.25932 1.2 9.53036V11C1.2 11.1086 1.29137 11.2 1.4 11.2H12.6C12.7086 11.2 12.8 11.1086 12.8 11V9.53036C11.6536 9.25932 10.8 8.22889 10.8 7.00001C10.8 5.77113 11.6536 4.74069 12.8 4.46965V3.00001C12.8 2.89138 12.7086 2.80001 12.6 2.80001H1.4Z" fill="black"/>
</g>
</svg>

<svg xmlns="http://www.w3.org/2000/svg" fill="none" viewBox="0 0 14 14"><path fill="#000" fill-rule="evenodd" d="M0 3c0-.771.629-1.4 1.4-1.4h11.2c.771 0 1.4.629 1.4 1.4v2a.6.6 0 0 1-.6.6 1.4 1.4 0 0 0 0 2.8.6.6 0 0 1 .6.6v2c0 .771-.629 1.4-1.4 1.4H1.4C.629 12.4 0 11.771 0 11V9a.6.6 0 0 1 .6-.6 1.4 1.4 0 0 0 0-2.8A.6.6 0 0 1 0 5zm1.4-.2c-.109 0-.2.091-.2.2v1.47a2.602 2.602 0 0 1 0 5.06V11c0 .109.091.2.2.2h11.2c.109 0 .2-.091.2-.2V9.53a2.602 2.602 0 0 1 0-5.06V3c0-.109-.091-.2-.2-.2z" clip-rule="evenodd"/></svg>
